!!! OTL: Berkowitz263
!!! Chapter: 1
!!! Section: II
!!! Page: 61
!!! Mode: 
!!! Encoder: DJB
**kern
*staff1
*I"Piano
=1-
*clefF4
*k[b-e-a-d-]
*A-:
*M4/4
4AA-/
4AA-/
4.A-\
8G\
=2
8F\L
8E-\
8D-\
8C\J
4D-\
4BB-/
=3
4.B-\
8A-\
8G\L
8F\
8E-\
8D-\J
=4
8C/L
8BB-/
8C/
8D-/J
2E-\
=5
4AA-/
4AA-/
4.A-\
8G\
=6
8F\L
8E-\
8D-\
8C\J
4D-\
4BB-/
=7
!!linebreak:original
8GG/L
8AA-/
8BB-/
8C/J
8D-\L
8E-\
8F\
8G\J
=8
8A-\L
8E-\
8C\
8E-\J
2AA-/
=9
4C/
4C/
4.F\
8G\
=10
8A-\L
8F\
8G\
8En\J
4F\
4r
=11
4c\
4C/
4D-\
[4B-\
=12
8B-\L]
8A-\
8G\
8F\J
4F\
4En\
=13
4C/
4c\
4B-\
4C/
=14
!!linebreak:original
4D-\
4B-\
4A-\
[4c\
=15
8c\L]
8B-\
8d-\
8c\J
8B-\L
8A-\
8G\
8F\J
=16
4C/
4En\
4F\
4r
=17
4AA-/
4AA-/
4.A-\
8G\
=18
8F\L
8E-\
8D-\
8C\J
4D-\
4BB-/
=19
4.B-\
8A-\
8G\L
8F\
8E-\
8D-\J
=20
8C/L
8BB-/
8C/
8D-/J
2E-\
=21
!!linebreak:original
4AA-/
4AA-/
4.A-\
8G\
=22
8F\L
8E-\
8D-\
8C\J
4D-\
4BB-/
=23
8GG/L
8AA-/
8BB-/
8C/J
8D-\L
8E-\
8F\
8G\J
=24
8A-\L
8E-\
8C\
8E-\J
2AA-/
==
*-
